addons/godot-firebase/icon.svg

<?xml version="1.0" encoding="UTF-8" standalone="no"?>
<!-- Created with Inkscape (http://www.inkscape.org/) -->

<svg
   xmlns:dc="http://purl.org/dc/elements/1.1/"
   xmlns:cc="http://creativecommons.org/ns#"
   xmlns:rdf="http://www.w3.org/1999/02/22-rdf-syntax-ns#"
   xmlns:svg="http://www.w3.org/2000/svg"
   xmlns="http://www.w3.org/2000/svg"
   xmlns:sodipodi="http://sodipodi.sourceforge.net/DTD/sodipodi-0.dtd"
   xmlns:inkscape="http://www.inkscape.org/namespaces/inkscape"
   width="151"
   height="151"
   viewBox="0 0 39.952082 39.952085"
   version="1.1"
   id="svg8"
   inkscape:version="0.92.4 (5da689c313, 2019-01-14)"
   sodipodi:docname="icon.svg"
   inkscape:export-filename="C:\Users\Student\Documents\Godot Projects\GodotFirebase\icon.png"
   inkscape:export-xdpi="96"
   inkscape:export-ydpi="96">
  <defs
     id="defs2">
    <linearGradient
       id="linearGradient-1"
       y2="92.8868033%"
       x2="100.833333%"
       y1="17.0266727%"
       x1="-3.48177083%">
      <stop
         id="stop865"
         offset="0%"
         stop-opacity="0.1"
         stop-color="#FFFFFF" />
      <stop
         id="stop867"
         offset="100%"
         stop-opacity="0"
         stop-color="#FFFFFF" />
    </linearGradient>
    <path
       id="path-2"
       d="M95.7984919,33.6246194 C95.5859256,32.3610745 94.6848395,31.3206592 93.4615125,30.9262876 C92.2381855,30.5319161 90.8962602,30.8492378 89.9812105,31.7492661 L72.2727216,49.5651223 L58.2428077,23.0544463 C57.6801918,21.9189555 56.5194912,21.2001264 55.2486188,21.2001264 C53.9777463,21.2001264 52.8170458,21.9189555 52.2544298,23.0544463 L44.6406351,37.5458126 L25.3922776,1.91410025 C23.852409,-0.984173003 19.489448,-0.216983024 18.9761585,3.02226355 L0.497735304,121.16952 L50.0301752,148.873603 C53.1471684,150.578603 56.9223279,150.578603 60.0393211,148.873603 L109.999502,121.16952 L95.7984919,33.6246194 Z" />
  </defs>
  <sodipodi:namedview
     id="base"
     pagecolor="#ffffff"
     bordercolor="#666666"
     borderopacity="1.0"
     inkscape:pageopacity="0.0"
     inkscape:pageshadow="2"
     inkscape:zoom="1.8003493"
     inkscape:cx="79.742704"
     inkscape:cy="103.67878"
     inkscape:document-units="px"
     inkscape:current-layer="layer1"
     showgrid="false"
     units="px"
     inkscape:pagecheckerboard="true"
     inkscape:window-width="1366"
     inkscape:window-height="705"
     inkscape:window-x="-8"
     inkscape:window-y="-8"
     inkscape:window-maximized="1" />
  <metadata
     id="metadata5">
    <rdf:RDF>
      <cc:Work
         rdf:about="">
        <dc:format>image/svg+xml</dc:format>
        <dc:type
           rdf:resource="http://purl.org/dc/dcmitype/StillImage" />
        <dc:title></dc:title>
      </cc:Work>
    </rdf:RDF>
  </metadata>
  <g
     inkscape:label="Layer 1"
     inkscape:groupmode="layer"
     id="layer1"
     transform="translate(0,-257.0479)">
    <g
       style="stroke-width:0.32031175"
       transform="matrix(0.15879653,-0.0472856,-0.0472856,-0.15879653,23.562346,278.72032)"
       id="g86-7" />
    <g
       id="g1014"
       transform="matrix(0.15879653,-0.0472856,-0.0472856,-0.15879653,23.562519,284.4518)"
       style="stroke-width:0.32031175">
      <path
         d="m 9.8723608,33.153786 -1.121,-16.063 c -0.135,-1.936 -1.675,-3.477 -3.611,-3.616 l -38.5549998,-2.751 c -0.094,-0.007 -0.188,-0.01 -0.281,-0.01 -1.916,0 -3.569,1.406 -3.852,3.33 l -2.211,14.994 h -31.459 l -2.211,-14.994 c -0.297,-2.018 -2.101,-3.469 -4.133,-3.32 l -38.554991,2.751 c -1.936,0.139 -3.476,1.68 -3.611,3.616 l -1.121,16.063 -32.547,3.138 c 0.015,-3.498 0.06,-7.33 0.06,-8.093 0,-34.3740006 43.605,-50.896 97.780991,-51.086 h 0.066 0.067 c 54.1759998,0.19 97.766,16.7119994 97.766,51.086 0,0.777 0.047,4.593 0.063,8.093 z"
         style="fill:#478cbf;fill-opacity:1;fill-rule:nonzero;stroke:none;stroke-width:0.32031175"
         id="path1012"
         inkscape:connector-curvature="0" />
    </g>
    <g
       id="Page-1"
       transform="matrix(0.55689491,0.36880985,-0.36880985,0.55689491,52.160427,247.68496)"
       style="fill:none;fill-rule:evenodd;stroke:none;stroke-width:1">
      <g
         transform="translate(-664,-1272)"
         id="styleguide">
        <g
           id="g960"
           transform="matrix(2,0,0,2,635.66728,1305.2248)">
          <path
             id="path940"
             d="m 19.62,11.558 -3.203,2.98 -2.972,-5.995 1.538,-3.448 c 0.4,-0.7 1.024,-0.692 1.414,0 z"
             inkscape:connector-curvature="0"
             style="fill:#ffa000" />
          <path
             id="path942"
             d="m 13.445,8.543 2.972,5.995 -11.97,11.135 z"
             inkscape:connector-curvature="0"
             style="fill:#f57f17" />
          <path
             id="path944"
             d="m 23.123,7.003 c 0.572,-0.55 1.164,-0.362 1.315,0.417 l 3.116,18.105 -10.328,6.2 c -0.36,0.2 -1.32,0.286 -1.32,0.286 0,0 -0.874,-0.104 -1.207,-0.3 L 4.447,25.673 Z"
             inkscape:connector-curvature="0"
             style="fill:#ffca28" />
          <path
             id="path946"
             d="M 13.445,8.543 4.448,25.673 8.455,0.638 c 0.148,-0.78 0.592,-0.855 0.988,-0.167 z"
             inkscape:connector-curvature="0"
             style="fill:#ffa000" />
        </g>
      </g>
    </g>
    <g
       id="g1043">
      <g
         style="stroke-width:0.32031175"
         transform="matrix(0.15879653,-0.0472856,-0.0472856,-0.15879653,28.201151,275.44639)"
         id="g78">
        <path
           id="path80"
           transform="matrix(1.5304717,-0.45573585,-0.45573585,-1.5304717,-131.43765,155.00086)"
           d="M 105.92383 68.443359 L 84.833984 77.005859 C 83.155761 77.687235 82.222824 79.464814 82.617188 81.232422 L 84.566406 89.960938 L 68.125 96.162109 L 64.673828 88.751953 C 63.906078 87.104024 62.013795 86.252668 60.271484 86.771484 L 37.351562 93.597656 C 35.609852 94.116294 34.491199 95.862628 34.75 97.662109 L 35.916016 105.75195 L 18.757812 109.55664 L 15.615234 101.18359 C 14.978221 99.487587 13.226808 98.509744 11.449219 98.857422 L -10.902344 103.23242 C -11.017794 103.25504 -10.743236 104.47635 -10.855469 104.50977 L -9.4882812 109.20508 L 10.599609 105.27344 L 14.142578 114.71484 C 14.569598 115.85266 15.768296 116.50085 16.955078 116.23828 L 40.587891 111 C 41.834077 110.72627 42.657009 109.53181 42.474609 108.26758 L 41.121094 98.873047 L 60.001953 93.251953 L 64.009766 101.85547 C 64.523467 102.95963 65.766079 103.50844 66.916016 103.16602 C 66.971832 103.14939 67.028819 103.13038 67.083984 103.10938 L 89.732422 94.568359 C 90.869521 94.138938 91.516926 92.93802 91.251953 91.751953 L 89.054688 81.912109 L 108.01367 74.214844 L 106.58789 69.537109 C 106.58789 69.537109 106.03464 68.3986 105.92383 68.443359 z "
           style="fill:#ffffff;fill-opacity:1;fill-rule:nonzero;stroke:none;stroke-width:0.20058548" />
      </g>
      <path
         inkscape:connector-curvature="0"
         id="path84-6"
         style="fill:#478cbf;fill-opacity:1;fill-rule:nonzero;stroke:none;stroke-width:0.05307158"
         d="m -5.6639654,275.32393 2.2467278,7.54506 0.2853686,0.95833 0.2596925,0.87212 c 0.017195,-0.005 0.034536,-0.009 0.052,-0.0129 L 3.09265,283.52919 c 0.309731,-0.0606 0.617861,0.11147 0.728664,0.40694 l 0.932747,2.48448 5.120376,-1.13523 -0.351938,-2.44462 c -0.04563,-0.31695 0.147793,-0.61951 0.454905,-0.71096 l 6.064122,-1.80575 c 0.306954,-0.0914 0.634384,0.0561 0.769575,0.34635 l 1.042703,2.23893 4.907466,-1.85081 -0.578471,-2.58998 c -0.06872,-0.308 0.09498,-0.62038 0.387357,-0.73926 l 5.58055,-2.26508 c 0.01652,-0.007 0.03332,-0.0124 0.05042,-0.0176 l -0.222762,-0.74809 0.0021,-0.002 -2.56879,-8.62663 0.02128,-0.006 c 0.472043,-1.19857 0.871679,-2.43246 1.222033,-3.72618 -1.352246,-1.26041 -2.858268,-2.29818 -4.410151,-3.21303 -0.926608,0.87321 -1.800228,1.80999 -2.603225,2.76914 -0.648467,-0.34836 -1.333181,-0.58738 -2.013377,-0.8478 -0.673961,-0.27489 -1.38229,-0.41266 -2.074766,-0.61272 -0.210728,-1.34049 -0.502997,-2.63492 -0.8629,-3.96955 -1.724787,-0.30826 -3.473389,-0.33248 -5.198422,-0.2102 -0.322692,1.27805 -0.563313,2.62968 -0.73556,3.93226 -0.640454,0.0797 -1.264663,0.22445 -1.880586,0.3999 l -2.84e-4,-9.5e-4 c -0.0043,0.001 -0.008,0.003 -0.01163,0.005 -0.0038,0.001 -0.0081,0.001 -0.01188,0.002 l 2.84e-4,9.5e-4 c -0.612685,0.1904 -1.213909,0.41057 -1.793807,0.69424 -0.856436,-0.99626 -1.796945,-1.99618 -2.767173,-2.88923 -1.51012902,0.84107 -2.96080202,1.81795 -4.2358391,3.01948 0.4286621,1.31415 0.8921121,2.55761 1.44949408,3.79488 -0.471344,0.54661 -0.98812998,1.04919 -1.40208408,1.64804 -0.4261399,0.58986 -0.8695158,1.16479 -1.2219441,1.81119 -1.1968861,-0.36363 -2.4403412,-0.67 -3.6940096,-0.89398 -0.7986237,1.61477 -1.4909812,3.30716 -1.9337706,5.10209 1.0006865,0.89142 2.010688,1.70555 3.0613464,2.4507 z" />
      <g
         id="g90-3"
         transform="matrix(0.15879653,-0.0472856,-0.0472856,-0.15879653,6.3230592,275.89759)"
         style="stroke-width:0.32031175">
        <path
           d="m 0,0 c 0,-12.052 -9.765,-21.815 -21.813,-21.815 -12.042,0 -21.81,9.763 -21.81,21.815 0,12.044 9.768,21.802 21.81,21.802 C -9.765,21.802 0,12.044 0,0"
           style="fill:#ffffff;fill-opacity:1;fill-rule:nonzero;stroke:none;stroke-width:0.32031175"
           id="path92-5"
           inkscape:connector-curvature="0" />
      </g>
      <g
         id="g94-6"
         transform="matrix(0.15879653,-0.0472856,-0.0472856,-0.15879653,5.5507759,276.35123)"
         style="stroke-width:0.32031175">
        <path
           d="m 0,0 c 0,-7.994 -6.479,-14.473 -14.479,-14.473 -7.996,0 -14.479,6.479 -14.479,14.473 0,7.994 6.483,14.479 14.479,14.479 C -6.479,14.479 0,7.994 0,0"
           style="fill:#414042;fill-opacity:1;fill-rule:nonzero;stroke:none;stroke-width:0.32031175"
           id="path96-2"
           inkscape:connector-curvature="0" />
      </g>
      <g
         id="g98-9"
         transform="matrix(0.15879653,-0.0472856,-0.0472856,-0.15879653,12.13223,278.28217)"
         style="stroke-width:0.32031175">
        <path
           d="m 0,0 c -3.878,0 -7.021,2.858 -7.021,6.381 v 20.081 c 0,3.52 3.143,6.381 7.021,6.381 3.878,0 7.028,-2.861 7.028,-6.381 V 6.381 C 7.028,2.858 3.878,0 0,0"
           style="fill:#ffffff;fill-opacity:1;fill-rule:nonzero;stroke:none;stroke-width:0.32031175"
           id="path100-1"
           inkscape:connector-curvature="0" />
      </g>
      <g
         id="g102-2"
         transform="matrix(0.15879653,-0.0472856,-0.0472856,-0.15879653,15.691222,273.10799)"
         style="stroke-width:0.32031175">
        <path
           d="m 0,0 c 0,-12.052 9.765,-21.815 21.815,-21.815 12.041,0 21.808,9.763 21.808,21.815 0,12.044 -9.767,21.802 -21.808,21.802 C 9.765,21.802 0,12.044 0,0"
           style="fill:#ffffff;fill-opacity:1;fill-rule:nonzero;stroke:none;stroke-width:0.32031175"
           id="path104-7"
           inkscape:connector-curvature="0" />
      </g>
      <g
         id="g106-0"
         transform="matrix(0.15879653,-0.0472856,-0.0472856,-0.15879653,16.586076,273.0652)"
         style="stroke-width:0.32031175">
        <path
           d="m 0,0 c 0,-7.994 6.477,-14.473 14.471,-14.473 8.002,0 14.479,6.479 14.479,14.473 0,7.994 -6.477,14.479 -14.479,14.479 C 6.477,14.479 0,7.994 0,0"
           style="fill:#414042;fill-opacity:1;fill-rule:nonzero;stroke:none;stroke-width:0.32031175"
           id="path108-9"
           inkscape:connector-curvature="0" />
      </g>
    </g>
  </g>
</svg>

<svg height="151" viewBox="0 0 39.952082 39.952085" width="151" xmlns="http://www.w3.org/2000/svg"><g transform="translate(0 -257.0479)"><path d="m9.8723608 33.153786-1.121-16.063c-.135-1.936-1.675-3.477-3.611-3.616l-38.5549998-2.751c-.094-.007-.188-.01-.281-.01-1.916 0-3.569 1.406-3.852 3.33l-2.211 14.994h-31.459l-2.211-14.994c-.297-2.018-2.101-3.469-4.133-3.32l-38.554991 2.751c-1.936.139-3.476 1.68-3.611 3.616l-1.121 16.063-32.547 3.138c.015-3.498.06-7.33.06-8.093 0-34.3740006 43.605-50.896 97.780991-51.086h.066.067c54.1759998.19 97.766 16.7119994 97.766 51.086 0 .777.047 4.593.063 8.093z" fill="#478cbf" transform="matrix(.15879653 -.0472856 -.0472856 -.15879653 23.562519 284.4518)"/><g fill="none" fill-rule="evenodd" transform="matrix(1.11378982 .7376197 -.7376197 1.11378982 24.12844594126 255.73829579248)"><path d="m19.62 11.558-3.203 2.98-2.972-5.995 1.538-3.448c.4-.7 1.024-.692 1.414 0z" fill="#ffa000"/><path d="m13.445 8.543 2.972 5.995-11.97 11.135z" fill="#f57f17"/><path d="m23.123 7.003c.572-.55 1.164-.362 1.315.417l3.116 18.105-10.328 6.2c-.36.2-1.32.286-1.32.286s-.874-.104-1.207-.3l-10.252-6.038z" fill="#ffca28"/><path d="m13.445 8.543-8.997 17.13 4.007-25.035c.148-.78.592-.855.988-.167z" fill="#ffa000"/></g><path d="m105.92383 68.443359-21.089846 8.5625c-1.678223.681376-2.61116 2.458955-2.216796 4.226563l1.949218 8.728516-16.441406 6.201171-3.451172-7.410156c-.76775-1.647929-2.660033-2.499285-4.402344-1.980469l-22.919922 6.826172c-1.74171.518638-2.860363 2.264972-2.601562 4.064453l1.166016 8.089841-17.158204 3.80469-3.142578-8.37305c-.637013-1.696003-2.388426-2.673846-4.166015-2.326168l-22.351563 4.374998c-.11545.02262.159108 1.24393.046875 1.27735l1.3671878 4.69531 20.0878902-3.93164 3.542969 9.4414c.42702 1.13782 1.625718 1.78601 2.8125 1.52344l23.632813-5.23828c1.246186-.27373 2.069118-1.46819 1.886718-2.73242l-1.353515-9.394533 18.880859-5.621094 4.007813 8.603517c.513701 1.10416 1.756313 1.65297 2.90625 1.31055.055816-.01663.112803-.03564.167968-.05664l22.648438-8.541021c1.137099-.429421 1.784504-1.630339 1.519531-2.816406l-2.197265-9.839844 18.958982-7.697265-1.42578-4.677735s-.55325-1.138509-.66406-1.09375z" fill="#fff" transform="matrix(.26458333833 -.00000000104 .00000000104 .26458333833 -.00000039697 257.04789942782)"/><path d="m-5.6639654 275.32393 2.2467278 7.54506.2853686.95833.2596925.87212c.017195-.005.034536-.009.052-.0129l5.9128265-1.15735c.309731-.0606.617861.11147.728664.40694l.932747 2.48448 5.120376-1.13523-.351938-2.44462c-.04563-.31695.147793-.61951.454905-.71096l6.064122-1.80575c.306954-.0914.634384.0561.769575.34635l1.042703 2.23893 4.907466-1.85081-.578471-2.58998c-.06872-.308.09498-.62038.387357-.73926l5.58055-2.26508c.01652-.007.03332-.0124.05042-.0176l-.222762-.74809.0021-.002-2.56879-8.62663.02128-.006c.472043-1.19857.871679-2.43246 1.222033-3.72618-1.352246-1.26041-2.858268-2.29818-4.410151-3.21303-.926608.87321-1.800228 1.80999-2.603225 2.76914-.648467-.34836-1.333181-.58738-2.013377-.8478-.673961-.27489-1.38229-.41266-2.074766-.61272-.210728-1.34049-.502997-2.63492-.8629-3.96955-1.724787-.30826-3.473389-.33248-5.198422-.2102-.322692 1.27805-.563313 2.62968-.73556 3.93226-.640454.0797-1.264663.22445-1.880586.3999l-.000284-.00095c-.0043.001-.008.003-.01163.005-.0038.001-.0081.001-.01188.002l.000284.00095c-.612685.1904-1.213909.41057-1.793807.69424-.856436-.99626-1.796945-1.99618-2.767173-2.88923-1.51012902.84107-2.96080202 1.81795-4.2358391 3.01948.4286621 1.31415.8921121 2.55761 1.44949408 3.79488-.471344.54661-.98812998 1.04919-1.40208408 1.64804-.4261399.58986-.8695158 1.16479-1.2219441 1.81119-1.1968861-.36363-2.4403412-.67-3.6940096-.89398-.7986237 1.61477-1.4909812 3.30716-1.9337706 5.10209 1.0006865.89142 2.010688 1.70555 3.0613464 2.4507z" fill="#478cbf"/><path d="m0 0c0-12.052-9.765-21.815-21.813-21.815-12.042 0-21.81 9.763-21.81 21.815 0 12.044 9.768 21.802 21.81 21.802 12.048 0 21.813-9.758 21.813-21.802" fill="#fff" transform="matrix(.15879653 -.0472856 -.0472856 -.15879653 6.323059 275.89759)"/><path d="m0 0c0-7.994-6.479-14.473-14.479-14.473-7.996 0-14.479 6.479-14.479 14.473s6.483 14.479 14.479 14.479c8 0 14.479-6.485 14.479-14.479" fill="#414042" transform="matrix(.15879653 -.0472856 -.0472856 -.15879653 5.550776 276.35123)"/><path d="m0 0c-3.878 0-7.021 2.858-7.021 6.381v20.081c0 3.52 3.143 6.381 7.021 6.381s7.028-2.861 7.028-6.381v-20.081c0-3.523-3.15-6.381-7.028-6.381" fill="#fff" transform="matrix(.15879653 -.0472856 -.0472856 -.15879653 12.13223 278.28217)"/><path d="m0 0c0-12.052 9.765-21.815 21.815-21.815 12.041 0 21.808 9.763 21.808 21.815 0 12.044-9.767 21.802-21.808 21.802-12.05 0-21.815-9.758-21.815-21.802" fill="#fff" transform="matrix(.15879653 -.0472856 -.0472856 -.15879653 15.691222 273.10799)"/><path d="m0 0c0-7.994 6.477-14.473 14.471-14.473 8.002 0 14.479 6.479 14.479 14.473s-6.477 14.479-14.479 14.479c-7.994 0-14.471-6.485-14.471-14.479" fill="#414042" transform="matrix(.15879653 -.0472856 -.0472856 -.15879653 16.586076 273.0652)"/></g></svg>
